32x32/actions/document-edit-sign-encrypt.svg

<svg xmlns="http://www.w3.org/2000/svg" viewBox="0 0 32 32"><path style="fill:currentColor;fill-opacity:1;stroke:none;color:#555e70" d="M6 4v12h1V5h11v7h7v4h1v-5l-7-7H6zm15 12a3 3 0 0 0-3 3v3h-2v6h10v-6h-2v-3a3 3 0 0 0-3-3zM9 17v2h2v-2H9zm12 0a2 2 0 0 1 2 2v3h-4v-3a2 2 0 0 1 2-2zM6 20v2h2v-2H6zm6 0v2h2v-2h-2zm-3 3v2h2v-2H9zm-3 3v2h2v-2H6zm6 0v2h2v-2h-2z"/></svg>

<!DOCTYPE svg>
<svg version="1.1" xmlns="http://www.w3.org/2000/svg" viewBox="0 0 32 32">
    <defs>
        <style type="text/css" id="current-color-scheme">
            .ColorScheme-Text {
                color:#555e70;
            }
        </style>
    </defs>
    <path class="ColorScheme-Text" style="fill:currentColor; fill-opacity:1; stroke:none" d="M 6 4 L 6 16 L 7 16 L 7 5 L 18 5 L 18 12 L 25 12 L 25 16 L 26 16 L 26 11 L 19 4 L 6 4 Z M 21 16 C 19.343 16 18 17.343 18 19 L 18 22 L 16 22 L 16 28 L 26 28 L 26 22 L 24 22 L 24 19 C 24 17.343 22.657 16 21 16 Z M 9 17 L 9 19 L 11 19 L 11 17 L 9 17 Z M 21 17 C 22.105 17 23 17.895 23 19 L 23 22 L 19 22 L 19 19 C 19 17.895 19.895 17 21 17 Z M 6 20 L 6 22 L 8 22 L 8 20 L 6 20 Z M 12 20 L 12 22 L 14 22 L 14 20 L 12 20 Z M 9 23 L 9 25 L 11 25 L 11 23 L 9 23 Z M 6 26 L 6 28 L 8 28 L 8 26 L 6 26 Z M 12 26 L 12 28 L 14 28 L 14 26 L 12 26 Z"/>
</svg>
